icons/16px/construction.svg

<svg width="16" height="16" viewBox="0 0 16 16" fill="none" xmlns="http://www.w3.org/2000/svg">
<path fill-rule="evenodd" clip-rule="evenodd" d="M1 3.5C1 2.67157 1.67157 2 2.5 2H13.5C14.3284 2 15 2.67157 15 3.5V7.5C15 8.32843 14.3284 9 13.5 9H11.5V12.5H14.6C14.8209 12.5 15 12.6791 15 12.9V13.6C15 13.8209 14.8209 14 14.6 14H1.4C1.17909 14 1 13.8209 1 13.6V12.9C1 12.6791 1.17909 12.5 1.4 12.5H4.5V9H2.5C1.67157 9 1 8.32843 1 7.5V3.5ZM10 12.5V9H6V12.5H10ZM2.5 3.5H6L3.16563 7.5H2.5V3.5ZM5 7.5L7.82422 3.49609L11 3.5L8.17039 7.5H5ZM10 7.5H13.5V3.5H12.8203L10 7.5Z" fill="black"/>
</svg>

<?xml version="1.0" encoding="UTF-8"?>
<svg id="Layer_1" data-name="Layer 1" xmlns="http://www.w3.org/2000/svg" viewBox="0 0 16 16">
  <defs>
    <style>
      .cls-1 {
        fill-rule: evenodd;
        stroke-width: 0px;
      }
    </style>
  </defs>
  <path class="cls-1" d="m1,3.5c0-.8284.6716-1.5,1.5-1.5h11c.8284,0,1.5.6716,1.5,1.5v4c0,.8284-.6716,1.5-1.5,1.5h-2v3.5h3.1c.2209,0,.4.1791.4.4v.7c0,.2209-.1791.4-.4.4H1.4c-.2209,0-.4-.1791-.4-.4v-.7c0-.2209.1791-.4.4-.4h3.1v-3.5h-2c-.8284,0-1.5-.6716-1.5-1.5V3.5Zm9,9v-3.5h-4v3.5h4ZM2.5,3.5h3.5l-2.8344,4h-.6656V3.5Zm2.5,4l2.8242-4.0039,3.1758.0039-2.8296,4h-3.1704Zm5,0h3.5V3.5h-.6797l-2.8203,4Z"/>
</svg>
